fs/reward_24_regular.svg

<svg viewBox="0 0 24 24" fill="none" xmlns="http://www.w3.org/2000/svg" height="1em" width="1em">
  <path d="M20.25 1.99902C21.2165 1.99902 22 2.78253 22 3.74902V6.79173C22 7.81589 21.4309 8.7552 20.5231 9.22932L14.2413 12.5097C15.8773 13.3314 17 15.0248 17 16.9804C17 19.7418 14.7614 21.9804 12 21.9804C9.23858 21.9804 7 19.7418 7 16.9804C7 15.0248 8.12271 13.3314 9.75875 12.5097L3.47693 9.22932C2.56913 8.7552 2 7.81589 2 6.79173V3.74902C2 2.78253 2.7835 1.99902 3.75 1.99902H20.25ZM12 13.4804C10.067 13.4804 8.5 15.0474 8.5 16.9804C8.5 18.9134 10.067 20.4804 12 20.4804C13.933 20.4804 15.5 18.9134 15.5 16.9804C15.5 15.0474 13.933 13.4804 12 13.4804ZM15.5 3.49802H8.5V10.16L11.8843 11.9279C11.9568 11.9658 12.0432 11.9658 12.1157 11.9279L15.5 10.159V3.49802ZM7 3.49802L3.75 3.49902C3.61193 3.49902 3.5 3.61095 3.5 3.74902V6.79173C3.5 7.25726 3.75869 7.68422 4.17133 7.89973L7 9.37602V3.49802ZM20.25 3.49902L17 3.49802V9.37602L19.8287 7.89973C20.2413 7.68422 20.5 7.25726 20.5 6.79173V3.74902C20.5 3.61095 20.3881 3.49902 20.25 3.49902Z" fill="#212121"/>
</svg>

<svg viewBox="0 0 24 24" fill="none" xmlns="http://www.w3.org/2000/svg" height="1em" width="1em">
  <path d="M20.25 1.999c.966 0 1.75.784 1.75 1.75v3.043a2.75 2.75 0 0 1-1.477 2.437l-6.282 3.28a5 5 0 1 1-4.483 0L3.478 9.23A2.75 2.75 0 0 1 2 6.792V3.749c0-.966.784-1.75 1.75-1.75h16.5ZM12 13.48a3.5 3.5 0 1 0 0 7 3.5 3.5 0 0 0 0-7Zm3.5-9.982h-7v6.662l3.384 1.768a.25.25 0 0 0 .232 0l3.384-1.769V3.498Zm-8.5 0-3.25.001a.25.25 0 0 0-.25.25v3.043c0 .465.259.892.671 1.108L7 9.376V3.498Zm13.25.001L17 3.498v5.878L19.829 7.9a1.25 1.25 0 0 0 .671-1.108V3.749a.25.25 0 0 0-.25-.25Z" fill="#212121"/>
</svg>
